X:352
T:Mrs. McGhee
R:jig
D:Jerry Holland
D:Altan: Island Angel
Z:id:hn-jig-352
M:6/8
K:Gmix
~G3 ~B3|dBG Gef|cAF FEF|c2d cBA|
~G3 ~B3|dBG Gef|cBc edc|dBG G2D:|
GBd gab|ag^f g2B|cAF FEF|c2d cBA|
GBd gab|ag^f g2B|cBc edc|dBG G2D|
GBd gab|ag^f g2B|cAF FEF|c2d cga|
bgb a^fa|g^fe dcB|cBc edc|dBG G2D||

